Newaita-dark/actions/24/tool-node-editor.svg

<svg height="24" viewBox="0 0 24 24" width="24" xmlns="http://www.w3.org/2000/svg"><g fill="#e0e0e0"><path d="m5.457031 3.164062c-1.375 0-2.480469 1.105469-2.480469 2.480469s1.105469 2.480469 2.480469 2.480469 2.480469-1.105469 2.480469-2.480469-1.105469-2.480469-2.480469-2.480469zm0 .992188c.824219 0 1.488281.664062 1.488281 1.488281s-.664062 1.488281-1.488281 1.488281-1.488281-.664062-1.488281-1.488281.664062-1.488281 1.488281-1.488281zm0 0"/><path d="m4.960938 7.382812h.992187v9.175782h-.992187zm0 0"/><path d="m16.621094 5.148438v.992187h-9.425782v-.992187zm0 0"/><path d="m16.371094 3.164062c-.273438 0-.496094.222657-.496094.496094v3.96875c0 .277344.222656.496094.496094.496094h3.96875c.277344 0 .5-.21875.5-.496094v-3.96875c0-.273437-.222656-.496094-.5-.496094zm.746094.992188h2.480468c.136719 0 .246094.109375.246094.25v2.480469c0 .136719-.109375.246093-.246094.246093h-2.480468c-.136719 0-.25-.109374-.25-.246093v-2.480469c0-.140625.113281-.25.25-.25zm0 0"/><path d="m3.472656 16.0625c-.273437 0-.496094.222656-.496094.496094v3.972656c0 .273438.222657.496094.496094.496094h3.96875c.277344 0 .496094-.222656.496094-.496094v-3.972656c0-.273438-.21875-.496094-.496094-.496094zm.746094.992188h2.480469c.136719 0 .246093.113281.246093.25v2.480468c0 .136719-.109374.246094-.246093.246094h-2.480469c-.140625 0-.25-.109375-.25-.246094v-2.480468c0-.136719.109375-.25.25-.25zm0 0"/><path d="m7.9375 7.757812c-.316406.296876-.402344.761719-.214844 1.152344l5.261719 10.875c.183594.378906.582031.597656 1 .550782.414063-.046876.757813-.347657.851563-.757813l.914062-3.960937 3.957031-.910157c.410157-.097656.714844-.4375.761719-.855469.046875-.414062-.175781-.816406-.550781-.996093l-10.875-5.265625c-.367188-.175782-.804688-.109375-1.105469.167968zm2.800781 2.847657 5.792969 2.804687-1.828125.421875c-.367187.085938-.65625.375-.738281.742188l-.421875 1.828125zm0 0"/></g></svg>

<svg xmlns="http://www.w3.org/2000/svg" xmlns:xlink="http://www.w3.org/1999/xlink" width="24px" height="24px" viewBox="0 0 24 24" version="1.1">
<g id="surface1">
     <defs>
  <style id="current-color-scheme" type="text/css">
   .ColorScheme-Text { color:#eeeeee; } .ColorScheme-Highlight { color:#424242; }
  </style>
 </defs>
<path style="fill:currentColor" class="ColorScheme-Text" d="M 5.457031 3.164062 C 4.082031 3.164062 2.976562 4.269531 2.976562 5.644531 C 2.976562 7.019531 4.082031 8.125 5.457031 8.125 C 6.832031 8.125 7.9375 7.019531 7.9375 5.644531 C 7.9375 4.269531 6.832031 3.164062 5.457031 3.164062 Z M 5.457031 4.15625 C 6.28125 4.15625 6.945312 4.820312 6.945312 5.644531 C 6.945312 6.46875 6.28125 7.132812 5.457031 7.132812 C 4.632812 7.132812 3.96875 6.46875 3.96875 5.644531 C 3.96875 4.820312 4.632812 4.15625 5.457031 4.15625 Z M 5.457031 4.15625 "/>
     <defs>
  <style id="current-color-scheme" type="text/css">
   .ColorScheme-Text { color:#eeeeee; } .ColorScheme-Highlight { color:#424242; }
  </style>
 </defs>
<path style="fill:currentColor" class="ColorScheme-Text" d="M 4.960938 7.382812 L 5.953125 7.382812 L 5.953125 16.558594 L 4.960938 16.558594 Z M 4.960938 7.382812 "/>
     <defs>
  <style id="current-color-scheme" type="text/css">
   .ColorScheme-Text { color:#eeeeee; } .ColorScheme-Highlight { color:#424242; }
  </style>
 </defs>
<path style="fill:currentColor" class="ColorScheme-Text" d="M 16.621094 5.148438 L 16.621094 6.140625 L 7.195312 6.140625 L 7.195312 5.148438 Z M 16.621094 5.148438 "/>
     <defs>
  <style id="current-color-scheme" type="text/css">
   .ColorScheme-Text { color:#eeeeee; } .ColorScheme-Highlight { color:#424242; }
  </style>
 </defs>
<path style="fill:currentColor" class="ColorScheme-Text" d="M 16.371094 3.164062 C 16.097656 3.164062 15.875 3.386719 15.875 3.660156 L 15.875 7.628906 C 15.875 7.90625 16.097656 8.125 16.371094 8.125 L 20.339844 8.125 C 20.617188 8.125 20.839844 7.90625 20.839844 7.628906 L 20.839844 3.660156 C 20.839844 3.386719 20.617188 3.164062 20.339844 3.164062 Z M 17.117188 4.15625 L 19.597656 4.15625 C 19.734375 4.15625 19.84375 4.265625 19.84375 4.40625 L 19.84375 6.886719 C 19.84375 7.023438 19.734375 7.132812 19.597656 7.132812 L 17.117188 7.132812 C 16.980469 7.132812 16.867188 7.023438 16.867188 6.886719 L 16.867188 4.40625 C 16.867188 4.265625 16.980469 4.15625 17.117188 4.15625 Z M 17.117188 4.15625 "/>
     <defs>
  <style id="current-color-scheme" type="text/css">
   .ColorScheme-Text { color:#eeeeee; } .ColorScheme-Highlight { color:#424242; }
  </style>
 </defs>
<path style="fill:currentColor" class="ColorScheme-Text" d="M 3.472656 16.0625 C 3.199219 16.0625 2.976562 16.285156 2.976562 16.558594 L 2.976562 20.53125 C 2.976562 20.804688 3.199219 21.027344 3.472656 21.027344 L 7.441406 21.027344 C 7.71875 21.027344 7.9375 20.804688 7.9375 20.53125 L 7.9375 16.558594 C 7.9375 16.285156 7.71875 16.0625 7.441406 16.0625 Z M 4.21875 17.054688 L 6.699219 17.054688 C 6.835938 17.054688 6.945312 17.167969 6.945312 17.304688 L 6.945312 19.785156 C 6.945312 19.921875 6.835938 20.03125 6.699219 20.03125 L 4.21875 20.03125 C 4.078125 20.03125 3.96875 19.921875 3.96875 19.785156 L 3.96875 17.304688 C 3.96875 17.167969 4.078125 17.054688 4.21875 17.054688 Z M 4.21875 17.054688 "/>
     <defs>
  <style id="current-color-scheme" type="text/css">
   .ColorScheme-Text { color:#eeeeee; } .ColorScheme-Highlight { color:#424242; }
  </style>
 </defs>
<path style="fill:currentColor" class="ColorScheme-Text" d="M 7.9375 7.757812 C 7.621094 8.054688 7.535156 8.519531 7.722656 8.910156 L 12.984375 19.785156 C 13.167969 20.164062 13.566406 20.382812 13.984375 20.335938 C 14.398438 20.289062 14.742188 19.988281 14.835938 19.578125 L 15.75 15.617188 L 19.707031 14.707031 C 20.117188 14.609375 20.421875 14.269531 20.46875 13.851562 C 20.515625 13.4375 20.292969 13.035156 19.917969 12.855469 L 9.042969 7.589844 C 8.675781 7.414062 8.238281 7.480469 7.9375 7.757812 Z M 10.738281 10.605469 L 16.53125 13.410156 L 14.703125 13.832031 C 14.335938 13.917969 14.046875 14.207031 13.964844 14.574219 L 13.542969 16.402344 Z M 10.738281 10.605469 "/>
</g>
</svg>
